src/svg/icon-track.svg

<svg width="12" height="12" viewBox="0 0 12 12" fill="none" xmlns="http://www.w3.org/2000/svg">
<path d="M1.31505 5.3905L0.00285051 10.9391C-0.0158952 11.0515 0.0590875 11.164 0.190307 11.164H1.0901L2.17735 5.44674C1.72745 5.44674 1.46501 5.42799 1.31505 5.3905V5.3905Z" fill="currentColor"/>
<path d="M2.57135 5.44678L1.99023 8.50224H5.81435V5.44678C5.57066 5.44678 5.34571 5.44678 5.13951 5.44678C4.35219 5.44678 3.73358 5.44678 3.24619 5.44678C2.98375 5.44678 2.75881 5.44678 2.57135 5.44678V5.44678Z" fill="currentColor"/>
<path d="M10.0313 8.50224L9.43148 5.44678C8.15677 5.44678 7.08827 5.44678 6.18848 5.44678V8.50224H10.0313Z" fill="currentColor"/>
<path d="M1.91455 8.87708L1.4834 11.164H10.5563L10.1064 8.87708L1.91455 8.87708Z" fill="currentColor"/>
<path d="M11.9809 10.9015L10.6875 5.40918C10.65 5.42792 10.6125 5.42792 10.575 5.42792H9.8252L10.9499 11.1452H11.8122C11.9622 11.1639 12.0372 11.014 11.9809 10.9015Z" fill="currentColor"/>
<path d="M3.0398 1.00412H2.49618C2.40245 1.00412 2.32747 1.06035 2.30872 1.15408L2.00879 2.46624H2.75862C2.75862 2.4475 3.05855 0.910392 3.0398 1.00412Z" fill="currentColor"/>
<path d="M5.81442 2.35377H3.15253L3.13379 2.46625H5.81442V2.35377Z" fill="currentColor"/>
<path d="M8.5888 1.00415H3.415L3.22754 1.9789H8.77626L8.5888 1.00415Z" fill="currentColor"/>
<path d="M6.18848 2.46625H8.86911L8.85036 2.35377H6.18848V2.46625Z" fill="currentColor"/>
<path d="M9.9939 2.46627L9.69397 1.15411C9.67523 1.06039 9.60024 1.00415 9.50651 1.00415H8.96289L9.24408 2.44753H9.9939V2.46627Z" fill="currentColor"/>
<path fill-rule="evenodd" clip-rule="evenodd" d="M10.5188 5.07181C10.6313 5.07181 10.7063 4.99683 10.7063 4.88436V4.84687L10.6876 3.00984C10.6876 2.91611 10.5938 2.82239 10.5001 2.82239H1.50218C1.40845 2.82239 1.31472 2.89737 1.31472 3.00984L1.29598 4.86561C1.29598 4.88018 1.29457 4.89379 1.29325 4.90651C1.29108 4.92749 1.28916 4.94603 1.29424 4.9624C1.33283 5.08683 1.77564 5.08589 5.58429 5.07785C6.83272 5.07521 8.44281 5.07181 10.5188 5.07181ZM10.3314 4.6969H9.6378V4.13455H10.3314V4.6969ZM10.3126 3.75965V3.21604H9.61905V3.75965H10.3126ZM9.26288 4.6969H8.49431V4.13455H9.26288V4.6969ZM9.24414 3.75965V3.21604H8.47557V3.75965H9.24414ZM8.1194 4.6969H7.35083V4.13455H8.1194V4.6969ZM8.10065 3.75965V3.21604H7.33208V3.75965H8.10065ZM6.18859 3.21604H6.95717V3.75965H6.18859V3.21604ZM6.95717 4.13455H6.18859V4.6969H6.95717V4.13455ZM5.04511 3.21604H5.81368V3.75965H5.04511V3.21604ZM5.81368 4.13455H5.04511V4.6969H5.81368V4.13455ZM3.90162 3.21604H4.6702V3.75965H3.90162V3.21604ZM4.6702 4.13455H3.90162V4.6969H4.6702V4.13455ZM2.75814 3.21604H3.52671V3.75965H2.75814V3.21604ZM3.52671 4.13455H2.75814V4.6969H3.52671V4.13455ZM1.68964 3.21604H2.38323V3.75965H1.68964V3.21604ZM2.38323 4.13455H1.68964V4.6969H2.38323V4.13455Z" fill="currentColor"/>
</svg>

<svg xmlns="http://www.w3.org/2000/svg" width="12" height="12" fill="none" viewBox="0 0 12 12"><path fill="currentColor" d="M1.315 5.39.003 10.94c-.019.112.056.224.187.224h.9l1.087-5.717c-.45 0-.712-.019-.862-.056m1.256.056-.58 3.055h3.823V5.447zm7.46 3.055-.6-3.055H6.188v3.055zm-8.116.375-.432 2.287h9.073l-.45-2.287zm10.065 2.025-1.293-5.493c-.037.019-.074.019-.112.019h-.75l1.125 5.717h.862c.15.019.225-.131.169-.243M3.04 1.004h-.544a.18.18 0 0 0-.187.15l-.3 1.312h.75c0-.019.3-1.556.28-1.462m2.775 1.35H3.153l-.02.112h2.681zm2.775-1.35H3.415l-.187.975h5.548zM6.188 2.466H8.87l-.019-.112H6.188zm3.806 0-.3-1.312a.18.18 0 0 0-.187-.15h-.544l.281 1.444h.75z"/><path fill="currentColor" fill-rule="evenodd" d="M10.519 5.072c.112 0 .187-.075.187-.188v-.037l-.018-1.837a.2.2 0 0 0-.188-.188H1.502a.19.19 0 0 0-.187.188l-.019 1.856-.003.04q-.005.032.001.056c.039.125.482.124 4.29.116 1.249-.003 2.859-.006 4.935-.006m-.188-.375h-.693v-.562h.693zm-.018-.937v-.544h-.694v.544zm-1.05.937h-.769v-.562h.769zm-.019-.937v-.544h-.768v.544zm-1.125.937h-.768v-.562h.768zm-.018-.937v-.544h-.769v.544zm-1.912-.544h.768v.544H6.19zm.768.919H6.19v.562h.768zm-1.912-.919h.769v.544h-.769zm.769.919h-.769v.562h.769zm-1.912-.919h.768v.544h-.768zm.768.919h-.768v.562h.768zm-1.912-.919h.769v.544h-.769zm.769.919h-.769v.562h.769zM1.69 3.216h.693v.544H1.69zm.693.919H1.69v.562h.693z" clip-rule="evenodd"/></svg>
